X: 28600
T: Mush, Mush
R: waltz
M: 3/4
K: Gmajor
D- D|:G2 G2 G2|G2 A3 G|F2 D4|-D4 (3DDD|c2 c3 c|
c2 d3 A|B6|-B4Bc|d2 d2 d2|c2 B2 A2|
G2 E4|c4 c2|B2 c2 B2|A2 E2 F2|G6|- G4 DD:|
G2 G2 G2|G2 A2 G2|F2 D4|-D4 D2|c2 c2 c2|
c2 d2 A2|B6|-B4 Bc|d2 d2 d2|c2 B2 A2|
G2 E4|c6|B2 c2 B2|A2 E2 F2|G6||

